app/img/diagram-bg.svg

<svg width="404" height="144" viewBox="0 0 404 144" fill="none" xmlns="http://www.w3.org/2000/svg">
<path d="M-14.1677 211.672L7 143L103 107L186.402 87.2342C188.462 86.7461 190.464 86.0415 192.375 85.132L255.883 54.9107C259.91 52.9944 264.314 52 268.774 52H303.464C309.977 52 316.314 49.8801 321.516 45.9606L350 24.5L410 0L423 201.019V220H-29L-14.1677 211.672Z" fill="url(#paint0_linear)"/>
<defs>
<linearGradient id="paint0_linear" x1="301" y1="-0.99997" x2="323.684" y2="167.464" gradientUnits="userSpaceOnUse">
<stop offset="0.126744" stop-color="#166C4F" stop-opacity="0.14"/>
<stop offset="1" stop-color="#166C4F" stop-opacity="0"/>
</linearGradient>
</defs>
</svg>

<svg width="404" height="144" fill="none" xmlns="http://www.w3.org/2000/svg"><path d="M-14.168 211.672L7 143l96-36 83.402-19.766a29.986 29.986 0 005.973-2.102l63.508-30.221A30.001 30.001 0 01268.774 52h34.69a30 30 0 0018.052-6.04L350 24.5 410 0l13 201.019V220H-29l14.832-8.328z" fill="url(#paint0_linear)"/><defs><linearGradient id="paint0_linear" x1="301" y1="-1" x2="323.684" y2="167.464" gradientUnits="userSpaceOnUse"><stop offset=".127" stop-color="#166C4F" stop-opacity=".14"/><stop offset="1" stop-color="#166C4F" stop-opacity="0"/></linearGradient></defs></svg>
